Numix-GalliumOS/48/categories/applications-cardgames.svg

<?xml version="1.0" encoding="UTF-8" standalone="no"?>
<svg
   xmlns:dc="http://purl.org/dc/elements/1.1/"
   xmlns:cc="http://creativecommons.org/ns#"
   xmlns:rdf="http://www.w3.org/1999/02/22-rdf-syntax-ns#"
   xmlns:svg="http://www.w3.org/2000/svg"
   xmlns="http://www.w3.org/2000/svg"
   xmlns:sodipodi="http://sodipodi.sourceforge.net/DTD/sodipodi-0.dtd"
   xmlns:inkscape="http://www.inkscape.org/namespaces/inkscape"
   width="48"
   height="48"
   viewBox="0 0 38.4 38.4"
   id="svg2"
   version="1.1"
   inkscape:version="0.91 r"
   sodipodi:docname="applications-cardgames.svg">
  <metadata
     id="metadata14">
    <rdf:RDF>
      <cc:Work
         rdf:about="">
        <dc:format>image/svg+xml</dc:format>
        <dc:type
           rdf:resource="http://purl.org/dc/dcmitype/StillImage" />
        <dc:title />
      </cc:Work>
    </rdf:RDF>
  </metadata>
  <defs
     id="defs12" />
  <sodipodi:namedview
     pagecolor="#ffffff"
     bordercolor="#666666"
     borderopacity="1"
     objecttolerance="10"
     gridtolerance="10"
     guidetolerance="10"
     inkscape:pageopacity="0"
     inkscape:pageshadow="2"
     inkscape:window-width="1920"
     inkscape:window-height="1056"
     id="namedview10"
     showgrid="true"
     inkscape:zoom="7.0264084"
     inkscape:cx="-25.990272"
     inkscape:cy="25.974897"
     inkscape:window-x="0"
     inkscape:window-y="24"
     inkscape:window-maximized="1"
     inkscape:current-layer="svg2">
    <inkscape:grid
       type="xygrid"
       id="grid4142" />
  </sodipodi:namedview>
  <path
     style="fill:#f9b082"
     d="M 8.3164062 7 C 7.5956475 7 7 7.5998321 7 8.3203125 L 7 35.679688 C 7 36.400169 7.5956475 37 8.3164062 37 L 24.683594 37 C 25.404352 37 26 36.400169 26 35.679688 L 26 8.3203125 C 26 7.5998321 25.404352 7 24.683594 7 L 8.3164062 7 z M 13.25 16.3125 C 14.081794 16.3125 14.914192 16.629072 15.548828 17.263672 C 16.182661 17.897468 16.497234 18.731824 16.498047 19.5625 L 16.501953 19.5625 C 16.502083 18.70184 16.84512 17.872858 17.453125 17.263672 C 18.722345 15.994797 20.779609 15.994797 22.048828 17.263672 C 23.317778 18.532821 23.317778 20.590229 22.048828 21.859375 L 16.5 27.6875 L 10.951172 21.859375 C 9.681896 20.590172 9.681896 18.532876 10.951172 17.263672 C 11.58581 16.629072 12.418205 16.3125 13.25 16.3125 z "
     transform="scale(0.8,0.8)"
     id="path6" />
  <path
     style="fill:#f9b082"
     inkscape:connector-curvature="0"
     id="path8"
     d="m 21.979408,7.5138942 c -0.55547,-0.1518609 -1.139086,0.1884352 -1.287143,0.744649 L 15.058054,29.394661 c -0.148059,0.556215 0.187456,1.144277 0.74293,1.292135 l 12.624043,3.400802 c 0.555503,0.151745 1.135085,-0.188435 1.283148,-0.748649 l 5.634211,-21.132116 c 0.14804,-0.56022 -0.187458,-1.144276 -0.742932,-1.296136 z m 4.670003,7.8769628 1.641576,6.237405 -4.540349,4.580964 -1.641576,-6.237406 z"
     sodipodi:nodetypes="cccccccccccccc" />
</svg>

<svg xmlns="http://www.w3.org/2000/svg" width="48" height="48" viewBox="0 0 38.4 38.4">
 <path d="m 8.316 7 c -0.721 0 -1.316 0.6 -1.316 1.32 l 0 27.359 c 0 0.72 0.596 1.32 1.316 1.32 l 16.367 0 c 0.721 0 1.316 -0.6 1.316 -1.32 l 0 -27.359 c 0 -0.72 -0.596 -1.32 -1.316 -1.32 l -16.367 0 z m 4.934 9.313 c 0.832 0 1.664 0.317 2.299 0.951 c 0.634 0.634 0.948 1.468 0.949 2.299 l 0.004 0 c 0 -0.861 0.343 -1.69 0.951 -2.299 c 1.269 -1.269 3.326 -1.269 4.596 0 c 1.269 1.269 1.269 3.327 0 4.596 l -5.549 5.828 l -5.549 -5.828 c -1.269 -1.269 -1.269 -3.326 0 -4.596 c 0.635 -0.635 1.467 -0.951 2.299 -0.951 z" transform="scale(0.8,0.8)" style="fill:#f9b082"/>
 <path d="m 21.979 7.514 c -0.555 -0.152 -1.139 0.188 -1.287 0.745 l -5.634 21.14 c -0.148 0.556 0.187 1.144 0.743 1.292 l 12.624 3.401 c 0.556 0.152 1.135 -0.188 1.283 -0.749 l 5.634 -21.13 c 0.148 -0.56 -0.187 -1.144 -0.743 -1.296 z m 4.67 7.877 1.642 6.237 -4.54 4.581 -1.642 -6.237 z" style="fill:#f9b082"/>
</svg>
